X: 1
T: le Pas du Loup
R: march
S: Qu\'ebec City workshop, from Betsy Hooper
M: 2/4
L: 1/16
K: Gmix
|:\
G2AB G2B2 | ABcA B2G2 |\
G2AB G2B2 | ABcd A4 :|
ABAG FED2 | DEFD G2AB |\
cBAG F2E2 | DEFD G4 |]
